X: 3
T: Allistrum's March
R: jig
M: 6/8
L: 1/8
K: Dmaj
Fdd fee|fed dBA|Fdd fee|fed B2A|
Fdd fee|fed dBA|Fdd fee|fed B2A||
FEE FDD|FEd dBA|FEE FDD|FEd B2A|
FEE FDD|FEd dBA|FEE FDD|FEd B2A||
d2f e2f|d2 {e}~d2 (3cBA|d2f e2f|~d3 B2A|
d2f e2f|d2 {e}~d2 (3cBA|d2f e2f|~d3 B2A||
B2A B2F|~B2A B2F|BdB c2F|B/c/dB c2F|
B2A B2F|~B2A B2F|BdB c2F|B/c/dB c2F||
